icons/svg/megaphone-loud.svg

<svg width="24" height="24" viewBox="0 0 24 24" fill="none" xmlns="http://www.w3.org/2000/svg">
<path d="M8.78422 19.283L7.53299 20.0326C6.90079 20.4113 6.5847 20.6007 6.2605 20.6701C5.82144 20.7641 5.36354 20.7074 4.96056 20.5092C4.66302 20.3629 4.40251 20.1022 3.88151 19.5808C3.36051 19.0595 3.1 18.7988 2.95379 18.501C2.75577 18.0977 2.69917 17.6395 2.79309 17.2001C2.86244 16.8757 3.05166 16.5593 3.4301 15.9267L7.78561 8.64538C8.50356 7.44516 8.86253 6.84504 9.35648 6.58369C9.7894 6.35463 10.2913 6.29254 10.7669 6.4092C11.3096 6.54231 11.8038 7.03688 12.7922 8.02601L15.4279 10.6636C16.4163 11.6528 16.9105 12.1473 17.0435 12.6904C17.1601 13.1664 17.098 13.6686 16.8691 14.1019C16.608 14.5962 16.0083 14.9554 14.809 15.6739L13.5384 16.435M8.78422 19.283C8.91563 19.5517 9.09294 19.8036 9.31613 20.027C10.4017 21.1133 12.1617 21.1133 13.2473 20.027C14.2251 19.0484 14.3222 17.5222 13.5384 16.435M8.78422 19.283L13.5384 16.435" stroke="currentColor" stroke-width="1.5"/>
<path d="M20.0066 4.40393L17.5422 6.8701" stroke="currentColor" stroke-width="1.5" stroke-linecap="round" stroke-linejoin="round"/>
<path d="M21.2512 9.87744H18.7618" stroke="currentColor" stroke-width="1.5" stroke-linecap="round" stroke-linejoin="round"/>
<path d="M14.5369 3.1582V5.64941" stroke="currentColor" stroke-width="1.5" stroke-linecap="round" stroke-linejoin="round"/>
</svg>

<svg xmlns="http://www.w3.org/2000/svg" width="24" height="24" fill="none" viewBox="0 0 24 24"><path stroke="currentColor" stroke-width="1.5" d="m8.784 19.283-1.251.75c-.632.378-.948.568-1.272.637-.44.094-.897.037-1.3-.16-.298-.147-.558-.408-1.08-.93-.52-.52-.781-.781-.927-1.079a2 2 0 0 1-.16-1.3c.068-.325.258-.642.636-1.274l4.356-7.282c.718-1.2 1.077-1.8 1.57-2.061.433-.23.935-.291 1.41-.175.544.133 1.038.628 2.026 1.617l2.636 2.638c.988.989 1.482 1.483 1.616 2.026.116.476.054.979-.175 1.412-.261.494-.86.853-2.06 1.572l-1.27.761m-4.755 2.848a2.778 2.778 0 0 0 4.463.744 2.784 2.784 0 0 0 .291-3.592m-4.754 2.848 4.754-2.848"/><path stroke="currentColor" stroke-linecap="round" stroke-linejoin="round" stroke-width="1.5" d="M20.007 4.404 17.542 6.87m3.709 3.007h-2.49m-4.224-6.719V5.65"/></svg>
